static/assets/images/networks/sui.svg

<svg xmlns="http://www.w3.org/2000/svg" fill="none" viewBox="0 0 256 256"><path fill="#4DA2FF" d="M128 256c70.692 0 128-57.308 128-128S198.692 0 128 0 0 57.308 0 128s57.308 128 128 128"/><path fill="#fff" fill-rule="evenodd" d="M66.6 194.6c12.8 22.2 35.8 35.5 61.4 35.5s48.6-13.3 61.4-35.5 12.8-48.7 0-70.9l-54-93.6c-3.3-5.7-11.5-5.7-14.8 0l-54 93.6c-12.9 22.2-12.9 48.7 0 70.9m46.2-120 11.5-20c1.6-2.8 5.8-2.8 7.4 0l44.3 76.8c8.1 14.1 9.7 30.4 4.6 45.4-.5-2.4-1.3-4.9-2.3-7.4-6.1-15.5-20-27.4-41.2-35.4-14.6-5.5-23.9-13.7-27.6-24.2-4.8-13.6.3-28.4 3.3-35.2m-19.7 34L80 131.4c-10 17.4-10 38.1 0 55.5s28 27.7 48 27.7c13.3 0 25.7-4.6 35.5-12.7 1.3-3.2 5.2-14.9.3-27-4.5-11.2-15.3-20.1-32.2-26.5-19-7.2-31.4-18.5-36.8-33.5-.7-2.1-1.2-4.2-1.7-6.3" clip-rule="evenodd"/></svg>

<svg width="256" height="256" viewBox="0 0 256 256" fill="none" xmlns="http://www.w3.org/2000/svg">
<path d="M128 256C198.692 256 256 198.692 256 128C256 57.3075 198.692 0 128 0C57.3075 0 0 57.3075 0 128C0 198.692 57.3075 256 128 256Z" fill="#4DA2FF"/>
<path fill-rule="evenodd" clip-rule="evenodd" d="M66.6 194.6C79.4 216.8 102.4 230.1 128 230.1C153.6 230.1 176.6 216.8 189.4 194.6C202.2 172.4 202.2 145.9 189.4 123.7L135.4 30.1C132.1 24.4 123.9 24.4 120.6 30.1L66.6 123.7C53.7 145.9 53.7 172.4 66.6 194.6ZM112.8 74.6L124.3 54.6C125.9 51.8 130.1 51.8 131.7 54.6L176 131.4C184.1 145.5 185.7 161.8 180.6 176.8C180.1 174.4 179.3 171.9 178.3 169.4C172.2 153.9 158.3 142 137.1 134C122.5 128.5 113.2 120.3 109.5 109.8C104.7 96.2 109.8 81.4 112.8 74.6ZM93.1 108.6L80 131.4C70 148.8 70 169.5 80 186.9C90 204.3 108 214.6 128 214.6C141.3 214.6 153.7 210 163.5 201.9C164.8 198.7 168.7 187 163.8 174.9C159.3 163.7 148.5 154.8 131.6 148.4C112.6 141.2 100.2 129.9 94.8 114.9C94.1 112.8 93.6 110.7 93.1 108.6Z" fill="white"/>
</svg>
